icon-themes/breeze_svg/cmd/32/saveastemplate.svg

<svg viewBox="0 0 32 32" xmlns="http://www.w3.org/2000/svg"><path d="m4 4v24h5 6v-1h-5v-7h8v-1h-9v8h-4v-22h5v8h11v-8h.585938l5.414062 5.414062v5.585938h1v-6l-1-1-4-4-1-1h-1-11zm7 1h6v7h-6zm13.398438 11-5.111329 5.111328-3.287109 3.28711v3.601562h3.601562l8.398438-8.398438zm-2.048829 3.490234 2.160157 2.160157-3.173828 3.175781v-.675781l-1.013672.021484h-1.035157v-1.035156-.585938l1.441407-1.439453zm-4.076171 4.074219v1.621094h1.035156.992187l.021485.652344-1.080078 1.082031h-1.441407l-.720703-.720703v-1.441407z" fill="#b3b3b3"/></svg>

<svg xmlns="http://www.w3.org/2000/svg" viewBox="0 0 32 32">
 <path 
     style="fill:#b3b3b3" 
     d="M 4 4 L 4 28 L 9 28 L 15 28 L 15 27 L 10 27 L 10 20 L 18 20 L 18 19 L 9 19 L 9 27 L 5 27 L 5 5 L 10 5 L 10 13 L 21 13 L 21 5 L 21.585938 5 L 27 10.414062 L 27 16 L 28 16 L 28 10 L 27 9 L 23 5 L 22 4 L 21 4 L 10 4 L 4 4 z M 11 5 L 17 5 L 17 12 L 11 12 L 11 5 z M 24.398438 16 L 19.287109 21.111328 L 16 24.398438 L 16 28 L 19.601562 28 L 28 19.601562 L 24.398438 16 z M 22.349609 19.490234 L 24.509766 21.650391 L 21.335938 24.826172 L 21.335938 24.150391 L 20.322266 24.171875 L 19.287109 24.171875 L 19.287109 23.136719 L 19.287109 22.550781 L 20.728516 21.111328 L 22.349609 19.490234 z M 18.273438 23.564453 L 18.273438 25.185547 L 19.308594 25.185547 L 20.300781 25.185547 L 20.322266 25.837891 L 19.242188 26.919922 L 17.800781 26.919922 L 17.080078 26.199219 L 17.080078 24.757812 L 18.273438 23.564453 z "
     />
</svg>
